public/icons/social-media/medium.svg

<svg width="100" height="100" viewBox="0 0 100 100" fill="none" xmlns="http://www.w3.org/2000/svg">
<rect width="100" height="100" rx="30" fill="url(#paint0_linear_77_108)"/>
<g opacity="0.25" filter="url(#filter0_f_77_108)">
<rect x="15" y="50" width="68.1223" height="42.5764" rx="21.2882" fill="url(#paint1_linear_77_108)"/>
</g>
<rect x="13" y="12.9999" width="73.7991" height="73.7991" rx="30" fill="url(#paint2_linear_77_108)"/>
<path d="M41.3333 37C44.7811 37 48.0877 38.3696 50.5257 40.8076C52.9637 43.2456 54.3333 46.5522 54.3333 50C54.3333 53.4478 52.9637 56.7544 50.5257 59.1924C48.0877 61.6304 44.7811 63 41.3333 63C37.8855 63 34.5789 61.6304 32.1409 59.1924C29.703 56.7544 28.3333 53.4478 28.3333 50C28.3333 46.5522 29.703 43.2456 32.1409 40.8076C34.5789 38.3696 37.8855 37 41.3333 37ZM60.8333 39.1667C64.0833 39.1667 66.25 44.0178 66.25 50C66.25 55.9822 64.0833 60.8333 60.8333 60.8333C57.5833 60.8333 55.4167 55.9822 55.4167 50C55.4167 44.0178 57.5833 39.1667 60.8333 39.1667ZM69.5 40.25C70.3233 40.25 71.0427 42.0418 71.4067 45.1163L71.5085 46.0762L71.5497 46.5853L71.6147 47.6557L71.6363 48.2168L71.6623 49.389L71.6667 50L71.6623 50.611L71.6363 51.7832L71.6147 52.3465L71.5497 53.4147L71.5063 53.9238L71.4088 54.8837C71.0427 57.9603 70.3255 59.75 69.5 59.75C68.6767 59.75 67.9573 57.9582 67.5933 54.8837L67.4915 53.9238C67.4766 53.7542 67.4628 53.5845 67.4503 53.4147L67.3853 52.3443C67.3769 52.1573 67.3697 51.9703 67.3637 51.7832L67.3377 50.611V49.389L67.3637 48.2168L67.3853 47.6535L67.4503 46.5853L67.4937 46.0762L67.5912 45.1163C67.9573 42.0397 68.6745 40.25 69.5 40.25Z" fill="white"/>
<defs>
<filter id="filter0_f_77_108" x="9.54" y="44.54" width="79.0423" height="53.4964" filterUnits="userSpaceOnUse" color-interpolation-filters="sRGB">
<feFlood flood-opacity="0" result="BackgroundImageFix"/>
<feBlend mode="normal" in="SourceGraphic" in2="BackgroundImageFix" result="shape"/>
<feGaussianBlur stdDeviation="2.73" result="effect1_foregroundBlur_77_108"/>
</filter>
<linearGradient id="paint0_linear_77_108" x1="8.40611" y1="6.55022" x2="82.6419" y2="100" gradientUnits="userSpaceOnUse">
<stop stop-color="#FBFBFC"/>
<stop offset="1" stop-color="#DBDDE8"/>
</linearGradient>
<linearGradient id="paint1_linear_77_108" x1="53.7692" y1="93.8462" x2="39.8836" y2="44.9043" gradientUnits="userSpaceOnUse">
<stop offset="0.0729167" stop-color="#1B1F23"/>
<stop offset="0.973958" stop-color="#363C42"/>
</linearGradient>
<linearGradient id="paint2_linear_77_108" x1="55" y1="88.9999" x2="20.5" y2="12.9999" gradientUnits="userSpaceOnUse">
<stop offset="0.0729167" stop-color="#1B1F23"/>
<stop offset="0.973958" stop-color="#363C42"/>
</linearGradient>
</defs>
</svg>

<svg xmlns="http://www.w3.org/2000/svg" width="100" height="100" fill="none" xmlns:v="https://vecta.io/nano"><rect width="100" height="100" rx="30" fill="url(#B)"/><g opacity=".25" filter="url(#A)"><rect x="15" y="50" width="68.122" height="42.576" rx="21.288" fill="url(#C)"/></g><rect x="13" y="13" width="73.799" height="73.799" rx="30" fill="url(#D)"/><path d="M41.333 37a13 13 0 0 1 13 13 13 13 0 0 1-13 13 13 13 0 0 1-13-13 13 13 0 0 1 13-13zm19.5 2.167c3.25 0 5.417 4.851 5.417 10.833s-2.167 10.833-5.417 10.833S55.417 55.982 55.417 50s2.167-10.833 5.417-10.833zM69.5 40.25c.823 0 1.543 1.792 1.907 4.866l.102.96.041.509.065 1.07.022.561.026 1.172.004.611-.004.611-.026 1.172-.022.563-.065 1.068-.043.509-.097.96c-.366 3.077-1.083 4.866-1.909 4.866s-1.543-1.792-1.907-4.866l-.102-.96-.041-.509-.065-1.07-.022-.561-.026-1.172v-1.222l.026-1.172.022-.563.065-1.068.043-.509.097-.96c.366-3.077 1.083-4.866 1.909-4.866z" fill="#fff"/><defs><filter id="A" x="9.54" y="44.54" width="79.042" height="53.496" filterUnits="userSpaceOnUse" color-interpolation-filters="sRGB"><feFlood flood-opacity="0"/><feBlend in="SourceGraphic"/><feGaussianBlur stdDeviation="2.73"/></filter><linearGradient id="B" x1="8.406" y1="6.55" x2="82.642" y2="100" gradientUnits="userSpaceOnUse"><stop stop-color="#fbfbfc"/><stop offset="1" stop-color="#dbdde8"/></linearGradient><linearGradient id="C" x1="53.769" y1="93.846" x2="39.884" y2="44.904" gradientUnits="userSpaceOnUse"><stop offset=".073" stop-color="#1b1f23"/><stop offset=".974" stop-color="#363c42"/></linearGradient><linearGradient id="D" x1="55" y1="89" x2="20.5" y2="13" gradientUnits="userSpaceOnUse"><stop offset=".073" stop-color="#1b1f23"/><stop offset=".974" stop-color="#363c42"/></linearGradient></defs></svg>
